X:60
M:2/4
L:1/8
K:A
| AA FE | FA B/c/d | eg/e/ dB | c/B/A FE | 
| e2 ec/e/ | fe cA | Bc Bc | BA FE | 
e2 ec/e/ | fe cA | ce Bc | BA A2 :|| 

